public/img/casting-icon-3.svg

<svg width="49" height="49" viewBox="0 0 49 49" fill="none" xmlns="http://www.w3.org/2000/svg">
<path d="M48.3416 42.1974L48.3148 42.1706L48.3454 42.14L47.6602 41.562L42.898 37.1328C42.898 37.1328 42.8137 37.2209 42.6759 37.351L42.5496 37.4888C41.4662 38.5071 37.9788 41.4433 33.8904 41.4969C33.8024 41.4969 33.7181 41.4969 33.6262 41.4969C31.4748 41.2634 29.3771 40.1073 27.2524 37.9674C23.7153 34.4149 19.7914 32.4893 15.5613 32.2252C15.4427 32.2252 15.3278 32.2252 15.2091 32.2252C14.5728 32.1687 13.9335 32.152 13.2951 32.1754C6.9289 32.4357 2.19353 36.7079 0.589546 38.354C0.252671 38.6717 0.0459412 38.8899 0.00383186 38.932L0.0306082 38.9588L0 38.9895L0.685249 39.5675L5.44741 43.9928C5.44741 43.9928 5.53166 43.9048 5.66948 43.7746L5.79579 43.6368C6.88297 42.6224 10.3666 39.6862 14.455 39.6288C14.5431 39.6288 14.6311 39.6288 14.7191 39.6288C16.8705 39.8623 18.9684 41.0184 21.0968 43.1583C24.6301 46.7108 28.554 48.6363 32.7841 48.9005C32.9027 48.9005 33.0214 48.9005 33.1363 48.9005C33.7726 48.9569 34.4119 48.9735 35.0503 48.9502C41.4165 48.6899 46.1519 44.4216 47.7559 42.7755C48.0927 42.4539 48.2995 42.2357 48.3416 42.1936" fill="url(#paint0_linear)"/>
<path fill-rule="evenodd" clip-rule="evenodd" d="M35.3471 16.7787L44.3622 11.5686C44.3902 11.5553 44.4223 11.5534 44.4517 11.5634C44.481 11.5734 44.5053 11.5945 44.5192 11.6222C44.5261 11.6394 44.5261 11.6586 44.5192 11.6758V30.2766C44.5192 30.3081 44.5067 30.3383 44.4845 30.3606C44.4622 30.3828 44.432 30.3953 44.4005 30.3953C44.3738 30.3953 44.3585 30.3953 44.3317 30.3685L35.3317 25.1737V27.7998C35.3287 28.0123 35.2436 28.2153 35.0944 28.3664C35.0193 28.4409 34.9304 28.4999 34.8325 28.54C34.7346 28.5801 34.6297 28.6004 34.524 28.5999H14.1048C13.9996 28.6004 13.8953 28.5801 13.798 28.5401C13.7007 28.5 13.6123 28.4411 13.5379 28.3667C13.4635 28.2923 13.4046 28.2039 13.3646 28.1066C13.3245 28.0093 13.3042 27.9051 13.3047 27.7998V14.1449C13.3081 13.9288 13.3913 13.7216 13.5382 13.563C13.681 13.4267 13.8691 13.3476 14.0665 13.341C17.9512 13.4731 21.7519 14.5071 25.1681 16.3614C26.1076 16.3615 27.0239 16.0698 27.7905 15.5267C28.5572 14.9836 29.1363 14.2159 29.4479 13.3295H34.5355C34.7487 13.3302 34.9534 13.4139 35.1059 13.563C35.2538 13.7212 35.3384 13.9284 35.3432 14.1449L35.3471 16.7787ZM18.3655 8.42188C18.4357 9.27618 18.8247 10.0728 19.4552 10.6536C20.0856 11.2343 20.9115 11.5567 21.7687 11.5567C22.6259 11.5567 23.4517 11.2343 24.0821 10.6536C24.7126 10.0728 25.1016 9.27618 25.1719 8.42188C26.7075 9.18867 27.9392 10.4516 28.6673 12.006C29.3954 13.5603 29.5772 15.315 29.1833 16.9857C28.7894 18.6563 27.8428 20.145 26.4971 21.2103C25.1513 22.2757 23.4851 22.8554 21.7687 22.8554C20.0522 22.8554 18.3861 22.2757 17.0403 21.2103C15.6945 20.145 14.7479 18.6563 14.354 16.9857C13.9601 15.315 14.142 13.5603 14.8701 12.006C15.5982 10.4516 16.8298 9.18867 18.3655 8.42188Z" fill="#5A2E91"/>
<defs>
<linearGradient id="paint0_linear" x1="24.1727" y1="32.1652" x2="24.1744" y2="47.2437" gradientUnits="userSpaceOnUse">
<stop stop-color="#2A5BA6"/>
<stop offset="1" stop-color="#E2127E"/>
</linearGradient>
</defs>
</svg>

<svg width="49" height="49" fill="none" xmlns="http://www.w3.org/2000/svg"><path d="M48.342 42.197l-.027-.026.03-.031-.685-.578-4.762-4.43s-.084.089-.222.219l-.126.138c-1.084 1.018-4.571 3.954-8.66 4.008h-.264c-2.151-.234-4.249-1.39-6.374-3.53-3.537-3.552-7.46-5.478-11.69-5.742h-.353a15.303 15.303 0 00-1.914-.05C6.93 32.435 2.194 36.708.59 38.354c-.337.318-.544.536-.586.578l.027.027-.031.03.685.579 4.762 4.425s.085-.088.222-.218l.127-.138c1.087-1.015 4.57-3.95 8.659-4.008h.264c2.152.233 4.25 1.39 6.378 3.53 3.533 3.552 7.457 5.477 11.687 5.742h.352a15.68 15.68 0 001.914.05c6.367-.261 11.102-4.53 12.706-6.175.337-.322.544-.54.586-.582" fill="url(#paint0_linear)"/><path fill-rule="evenodd" clip-rule="evenodd" d="M35.347 16.779l9.015-5.21a.12.12 0 01.157.053.072.072 0 010 .054v18.6a.12.12 0 01-.118.12c-.027 0-.043 0-.07-.027l-9-5.195V27.8a.805.805 0 01-.808.8H14.106a.797.797 0 01-.8-.8V14.145a.877.877 0 01.233-.582.804.804 0 01.528-.222 25.056 25.056 0 0111.102 3.02 4.536 4.536 0 004.28-3.032h5.087a.82.82 0 01.57.234.88.88 0 01.238.582l.004 2.634zM18.365 8.422a3.414 3.414 0 006.807 0 7.618 7.618 0 11-6.806 0z" fill="#5A2E91"/><defs><linearGradient id="paint0_linear" x1="24.173" y1="32.165" x2="24.174" y2="47.244" gradientUnits="userSpaceOnUse"><stop stop-color="#2A5BA6"/><stop offset="1" stop-color="#E2127E"/></linearGradient></defs></svg>
